public/images/differences/stackCombinations.svg

<svg xmlns="http://www.w3.org/2000/svg" width="429" height="271" fill="none">
    <g filter="url(#a)">
        <g clip-path="url(#b)">
            <rect width="429" height="271" fill="#fff" rx="24.5" />
            <g filter="url(#c)">
                <rect width="114.667" height="164" x="30.5" y="30.5" fill="#fff" rx="9.5" />
                <rect width="114.667" height="164" x="30.5" y="30.5" stroke="#EEEBE2" rx="9.5" />
                <path fill="#000"
                    d="M103.833 49H90.58l-2.7467 4.7333L85.0867 49H71.8333l16 27.7067L103.833 49ZM87.8333 65.6267l-9.12-15.8H84.62L87.8333 55.4l3.2134-5.5733h5.9066l-9.12 15.8Z" />
                <rect width="114.667" height="164" x="157.167" y="30.5" fill="#fff" rx="9.5" />
                <rect width="114.667" height="164" x="157.167" y="30.5" stroke="#EEEBE2" rx="9.5" />
                <path fill="#000"
                    d="M217.473 63.2536c0 .7905-.314 1.5486-.872 2.1076a2.9821 2.9821 0 0 1-2.108.8737c-.79 0-1.549-.3141-2.108-.8732a2.9815 2.9815 0 0 1 2.107-5.0894c.791 0 1.549.3141 2.108.8732.559.5591.873 1.3174.873 2.1081Zm3.531-14.2533c-1.795 0-4.143 1.28-6.517 3.496-2.374-2.204-4.723-3.4694-6.516-3.4694-.547 0-1.044.124-1.475.3707-1.833 1.0573-2.244 4.352-1.297 8.4867-4.059 1.2533-6.699 3.2573-6.699 5.3693 0 2.12 2.653 4.1293 6.724 5.3733-.939 4.1507-.52 7.4507 1.317 8.5067.427.2493.92.3667 1.47.3667 1.793 0 4.142-1.28 6.517-3.4987 2.373 2.2053 4.723 3.4707 6.516 3.4707.547 0 1.044-.12 1.475-.3667 1.832-1.056 2.244-4.3507 1.297-8.4867 4.044-1.2426 6.684-3.2506 6.684-5.3653 0-2.12-2.653-4.1293-6.724-5.376.939-4.1467.52-7.4493-1.317-8.5067a2.8895 2.8895 0 0 0-1.455-.3706Zm-.007 1.4533v.008c.3 0 .542.0587.744.1693.888.5094 1.274 2.4467.974 4.9387-.072.6133-.19 1.26-.334 1.92a31.313 31.313 0 0 0-4.142-.712 32.053 32.053 0 0 0-2.714-3.2627c2.123-1.9733 4.116-3.056 5.474-3.06l-.002-.0013Zm-13.026.0267c1.349 0 3.352 1.0773 5.48 3.04-.915.96-1.827 2.0493-2.694 3.256a30.6479 30.6479 0 0 0-4.15.7173 19.6068 19.6068 0 0 1-.339-1.8933c-.307-2.4907.072-4.4267.952-4.9427.253-.12.533-.1707.751-.1773Zm6.509 4.0666c.608.6258 1.212 1.3209 1.813 2.0854-.586-.0267-1.186-.0454-1.793-.0454a33.6438 33.6438 0 0 0-1.813.0454c.586-.7627 1.193-1.46 1.793-2.0854Zm.02 3.5014c.987 0 1.969.0453 2.936.124.542.7768 1.068 1.6035 1.577 2.48.495.8542.948 1.7191 1.358 2.5946-.411.8734-.862 1.7467-1.351 2.6-.507.88-1.031 1.7174-1.573 2.4934a34.135 34.135 0 0 1-5.883.0066 35.8006 35.8006 0 0 1-1.577-2.48 33.5735 33.5735 0 0 1-1.358-2.5946c.412-.8879.863-1.7572 1.351-2.6054.507-.88 1.031-1.7146 1.573-2.4906.98-.0871 1.963-.1307 2.947-.1307v.0027Zm-4.847.3386c-.32.5027-.64 1.0174-.938 1.5467-.299.52-.581 1.0418-.847 1.5653a27.69 27.69 0 0 1-.901-2.596c.853-.2 1.753-.3786 2.686-.516Zm9.68 0c.928.136 1.82.308 2.675.516-.24.8427-.54 1.7094-.88 2.5774a34.767 34.767 0 0 0-1.793-3.0934h-.002Zm4.084.9c.647.2009 1.258.4222 1.834.664 2.309.9867 3.802 2.2774 3.802 3.3014-.006 1.024-1.5 2.32-3.809 3.3-.56.24-1.173.456-1.807.6573-.4-1.3554-.89-2.6827-1.466-3.9733.6-1.356 1.08-2.68 1.446-3.952v.0026Zm-17.86.0054c.371 1.28.86 2.6093 1.467 3.9733a30.67 30.67 0 0 0-1.448 3.952c-.645-.2-1.259-.424-1.827-.6667-2.309-.9826-3.802-2.2746-3.802-3.2986s1.493-2.3227 3.802-3.3014c.56-.24 1.174-.456 1.808-.6586Zm15.571 5.7066c.353.876.653 1.7494.901 2.5974a27.8 27.8 0 0 1-2.688.52 34.6114 34.6114 0 0 0 1.787-3.1174Zm-13.26.0267c.267.5227.547 1.044.853 1.5667.307.5208.62 1.0288.94 1.524a29.3254 29.3254 0 0 1-2.674-.5147c.24-.84.541-1.7093.88-2.5773l.001.0013Zm14.525 3.9827c.15.6573.267 1.2906.339 1.8973.307 2.4907-.072 4.4267-.952 4.944-.196.12-.451.1707-.751.1707-1.349 0-3.352-1.076-5.48-3.04.915-.96 1.827-2.048 2.694-3.2534 1.476-.1573 2.872-.3986 4.15-.7186Zm-15.773.0133c1.28.312 2.675.5533 4.143.7093.88 1.2067 1.793 2.3027 2.713 3.2614-2.127 1.9773-4.123 3.06-5.48 3.06a1.6008 1.6008 0 0 1-.737-.176c-.888-.5067-1.274-2.4454-.974-4.9374.072-.6133.191-1.2586.335-1.9173Zm6.08.8533c.588.0285 1.185.0436 1.793.0454a33.889 33.889 0 0 0 1.814-.0454c-.587.7627-1.194 1.46-1.794 2.0867-.608-.6276-1.212-1.3231-1.813-2.0867Z" />
                <rect width="114.667" height="164" x="283.833" y="30.5" fill="#fff" rx="9.5" />
                <rect width="114.667" height="164" x="283.833" y="30.5" stroke="#EEEBE2" rx="9.5" />
                <path fill="#000"
                    d="M338.972 77.1672a5.9208 5.9208 0 0 1-3.547-.1791 5.9223 5.9223 0 0 1-2.806-2.1769 5.4617 5.4617 0 0 1-.887-1.9766 5.4674 5.4674 0 0 1-.05-2.1661c.044-.2357.103-.4683.178-.696l.14-.428.383.28a9.5995 9.5995 0 0 0 2.915 1.456l.277.084-.027.2774c-.033.3929.074.785.302 1.1066a1.7857 1.7857 0 0 0 1.913.7107c.162-.0423.316-.1098.457-.2l7.454-4.7493c.182-.1148.338-.2663.459-.4449.12-.1787.202-.3805.239-.5925a1.6504 1.6504 0 0 0-.014-.653 1.6599 1.6599 0 0 0-.267-.5963 1.7859 1.7859 0 0 0-1.913-.7107 1.6044 1.6044 0 0 0-.458.2l-2.844 1.8134a5.324 5.324 0 0 1-1.513.6653 5.92 5.92 0 0 1-3.547-.1785 5.9209 5.9209 0 0 1-2.806-2.1762 5.465 5.465 0 0 1-.887-1.9773 5.4518 5.4518 0 0 1-.049-2.1667 5.1639 5.1639 0 0 1 .798-1.966c.4-.5927.919-1.0956 1.524-1.4766l7.452-4.7507a5.3366 5.3366 0 0 1 1.514-.6653 5.9185 5.9185 0 0 1 3.547.1791 5.9169 5.9169 0 0 1 2.806 2.1769c.425.593.727 1.2651.888 1.9765.161.7115.178 1.448.049 2.1661a5.2179 5.2179 0 0 1-.178.696l-.14.428-.382-.28a9.5922 9.5922 0 0 0-2.916-1.4573l-.277-.084.027-.276a1.6643 1.6643 0 0 0-.302-1.108 1.784 1.784 0 0 0-.845-.6547 1.7866 1.7866 0 0 0-1.068-.0546 1.5958 1.5958 0 0 0-.457.2l-7.454 4.7493a1.543 1.543 0 0 0-.458.4449 1.5389 1.5389 0 0 0-.24.5924c-.039.2165-.034.4385.015.653.048.2146.138.4173.266.5964a1.7855 1.7855 0 0 0 1.913.7106c.163-.0426.318-.1105.459-.2013l2.843-1.8133a5.3274 5.3274 0 0 1 1.513-.664 5.92 5.92 0 0 1 3.547.1785 5.916 5.916 0 0 1 2.806 2.1761c.425.5933.727 1.2657.887 1.9774.161.7117.178 1.4484.049 2.1666a5.1351 5.1351 0 0 1-.798 1.9668c-.4.593-.919 1.0961-1.524 1.4772l-7.452 4.7494c-.467.299-.978.5235-1.514.6653Zm13.811-23.9333c-2.971-4.2534-8.84-5.5134-13.083-2.8094l-7.453 4.7494a8.5359 8.5359 0 0 0-2.536 2.4552 8.5327 8.5327 0 0 0-1.325 3.2714 8.996 8.996 0 0 0 .888 5.7814 8.5324 8.5324 0 0 0-1.28 3.1946 9.1014 9.1014 0 0 0 .083 3.6018 9.122 9.122 0 0 0 1.474 3.2876c2.972 4.2533 8.84 5.5133 13.083 2.8106l7.453-4.7493a8.5359 8.5359 0 0 0 2.536-2.4552 8.5325 8.5325 0 0 0 1.325-3.2715 9.0085 9.0085 0 0 0-.886-5.7813 8.5293 8.5293 0 0 0 1.277-3.1947 9.0854 9.0854 0 0 0-.083-3.6023 9.1062 9.1062 0 0 0-1.473-3.2883Z" />
                <rect width="368" height="39" x="30.5" y="205.5" fill="#FAEEEE" rx="9.5" />
                <rect width="368" height="39" x="30.5" y="205.5" stroke="#EEEBE2" rx="9.5" />
            </g>
        </g>
        <rect width="428" height="270" x=".5" y=".5" stroke="#EEEBE2" rx="24" />
    </g>
    <defs>
        <filter id="a" width="429" height="273" x="0" y="0" color-interpolation-filters="sRGB"
            filterUnits="userSpaceOnUse">
            <feFlood flood-opacity="0" result="BackgroundImageFix" />
            <feBlend in="SourceGraphic" in2="BackgroundImageFix" result="shape" />
            <feColorMatrix in="SourceAlpha" result="hardAlpha"
                values="0 0 0 0 0 0 0 0 0 0 0 0 0 0 0 0 0 0 127 0" />
            <feOffset dy="2" />
            <feGaussianBlur stdDeviation="4" />
            <feComposite in2="hardAlpha" k2="-1" k3="1" operator="arithmetic" />
            <feColorMatrix values="0 0 0 0 0 0 0 0 0 0 0 0 0 0 0 0 0 0 0.1 0" />
            <feBlend in2="shape" result="effect1_innerShadow_120_383" />
        </filter>
        <filter id="c" width="569" height="415" x="-70" y="-66" color-interpolation-filters="sRGB"
            filterUnits="userSpaceOnUse">
            <feFlood flood-opacity="0" result="BackgroundImageFix" />
            <feColorMatrix in="SourceAlpha" result="hardAlpha"
                values="0 0 0 0 0 0 0 0 0 0 0 0 0 0 0 0 0 0 127 0" />
            <feOffset dx="2" dy="4" />
            <feGaussianBlur stdDeviation="2" />
            <feComposite in2="hardAlpha" operator="out" />
            <feColorMatrix values="0 0 0 0 0.905892 0 0 0 0 0.905892 0 0 0 0 0.905892 0 0 0 1 0" />
            <feBlend in2="BackgroundImageFix" result="effect1_dropShadow_120_383" />
            <feColorMatrix in="SourceAlpha" result="hardAlpha"
                values="0 0 0 0 0 0 0 0 0 0 0 0 0 0 0 0 0 0 127 0" />
            <feOffset dx="4" dy="8" />
            <feGaussianBlur stdDeviation="4" />
            <feComposite in2="hardAlpha" operator="out" />
            <feColorMatrix values="0 0 0 0 0.896989 0 0 0 0 0.896989 0 0 0 0 0.896989 0 0 0 1 0" />
            <feBlend in2="effect1_dropShadow_120_383" result="effect2_dropShadow_120_383" />
            <feColorMatrix in="SourceAlpha" result="hardAlpha"
                values="0 0 0 0 0 0 0 0 0 0 0 0 0 0 0 0 0 0 127 0" />
            <feOffset dx="4" dy="16" />
            <feGaussianBlur stdDeviation="6" />
            <feComposite in2="hardAlpha" operator="out" />
            <feColorMatrix values="0 0 0 0 0.899121 0 0 0 0 0.899121 0 0 0 0 0.899121 0 0 0 1 0" />
            <feBlend in2="effect2_dropShadow_120_383" result="effect3_dropShadow_120_383" />
            <feColorMatrix in="SourceAlpha" result="hardAlpha"
                values="0 0 0 0 0 0 0 0 0 0 0 0 0 0 0 0 0 0 127 0" />
            <feOffset dy="4" />
            <feGaussianBlur stdDeviation="50" />
            <feComposite in2="hardAlpha" operator="out" />
            <feColorMatrix values="0 0 0 0 1 0 0 0 0 0.352941 0 0 0 0 0.333333 0 0 0 0.3 0" />
            <feBlend in2="effect3_dropShadow_120_383" result="effect4_dropShadow_120_383" />
            <feColorMatrix in="SourceAlpha" result="hardAlpha"
                values="0 0 0 0 0 0 0 0 0 0 0 0 0 0 0 0 0 0 127 0" />
            <feOffset dx="-5" dy="-5" />
            <feGaussianBlur stdDeviation="5" />
            <feComposite in2="hardAlpha" operator="out" />
            <feColorMatrix values="0 0 0 0 1 0 0 0 0 1 0 0 0 0 1 0 0 0 0.4 0" />
            <feBlend in2="effect4_dropShadow_120_383" result="effect5_dropShadow_120_383" />
            <feBlend in="SourceGraphic" in2="effect5_dropShadow_120_383" result="shape" />
        </filter>
        <clipPath id="b">
            <rect width="429" height="271" fill="#fff" rx="24.5" />
        </clipPath>
    </defs>
</svg>

<svg width="429" height="271" viewBox="0 0 429 271" fill="none" xmlns="http://www.w3.org/2000/svg">
    <g filter="url(#filter0_i_120_383)">
        <g clip-path="url(#clip0_120_383)">
            <rect width="429" height="271" rx="24.5" fill="white"/>
            <g filter="url(#filter1_ddddd_120_383)">
                <rect x="30.5" y="30.5" width="114.667" height="114" rx="9.5" fill="white"/>
                <rect x="30.5" y="30.5" width="114.667" height="114" rx="9.5" stroke="#EEEBE2"/>
                <path d="M103.833 49H90.58L87.8333 53.7333L85.0867 49H71.8333L87.8333 76.7067L103.833 49ZM87.8333 65.6267L78.7133 49.8267H84.62L87.8333 55.4L91.0467 49.8267H96.9533L87.8333 65.6267Z" fill="black"/>
                <rect x="157.167" y="30.5" width="114.667" height="114" rx="9.5" fill="white"/>
                <rect x="157.167" y="30.5" width="114.667" height="114" rx="9.5" stroke="#EEEBE2"/>
                <path d="M217.473 63.2536C217.473 64.0441 217.159 64.8022 216.601 65.3612C216.042 65.9203 215.284 66.2346 214.493 66.2349C213.703 66.2349 212.944 65.9208 212.385 65.3617C211.826 64.8026 211.512 64.0443 211.512 63.2536C211.512 62.4631 211.826 61.705 212.385 61.1459C212.944 60.5869 213.702 60.2726 214.492 60.2723C215.283 60.2723 216.041 60.5864 216.6 61.1455C217.159 61.7046 217.473 62.4629 217.473 63.2536ZM221.004 49.0003C219.209 49.0003 216.861 50.2803 214.487 52.4963C212.113 50.2923 209.764 49.0269 207.971 49.0269C207.424 49.0269 206.927 49.1509 206.496 49.3976C204.663 50.4549 204.252 53.7496 205.199 57.8843C201.14 59.1376 198.5 61.1416 198.5 63.2536C198.5 65.3736 201.153 67.3829 205.224 68.6269C204.285 72.7776 204.704 76.0776 206.541 77.1336C206.968 77.3829 207.461 77.5003 208.011 77.5003C209.804 77.5003 212.153 76.2203 214.528 74.0016C216.901 76.2069 219.251 77.4723 221.044 77.4723C221.591 77.4723 222.088 77.3523 222.519 77.1056C224.351 76.0496 224.763 72.7549 223.816 68.6189C227.86 67.3763 230.5 65.3683 230.5 63.2536C230.5 61.1336 227.847 59.1243 223.776 57.8776C224.715 53.7309 224.296 50.4283 222.459 49.3709C222.014 49.1213 221.514 48.9934 221.004 49.0003ZM220.997 50.4536V50.4616C221.297 50.4616 221.539 50.5203 221.741 50.6309C222.629 51.1403 223.015 53.0776 222.715 55.5696C222.643 56.1829 222.525 56.8296 222.381 57.4896C221.018 57.1598 219.634 56.9219 218.239 56.7776C217.407 55.6312 216.501 54.5412 215.525 53.5149C217.648 51.5416 219.641 50.4589 220.999 50.4549L220.997 50.4536ZM207.971 50.4803C209.32 50.4803 211.323 51.5576 213.451 53.5203C212.536 54.4803 211.624 55.5696 210.757 56.7763C209.359 56.92 207.972 57.1596 206.607 57.4936C206.463 56.8683 206.35 56.2364 206.268 55.6003C205.961 53.1096 206.34 51.1736 207.22 50.6576C207.473 50.5376 207.753 50.4869 207.971 50.4803ZM214.48 54.5469C215.088 55.1727 215.692 55.8678 216.293 56.6323C215.707 56.6056 215.107 56.5869 214.5 56.5869C213.886 56.586 213.281 56.6011 212.687 56.6323C213.273 55.8696 213.88 55.1723 214.48 54.5469ZM214.5 58.0483C215.487 58.0483 216.469 58.0936 217.436 58.1723C217.978 58.9491 218.504 59.7758 219.013 60.6523C219.508 61.5065 219.961 62.3714 220.371 63.2469C219.96 64.1203 219.509 64.9936 219.02 65.8469C218.513 66.7269 217.989 67.5643 217.447 68.3403C215.49 68.5118 213.521 68.514 211.564 68.3469C211.005 67.5421 210.478 66.7147 209.987 65.8669C209.492 65.0127 209.039 64.1478 208.629 63.2723C209.041 62.3844 209.492 61.5151 209.98 60.6669C210.487 59.7869 211.011 58.9523 211.553 58.1763C212.533 58.0892 213.516 58.0456 214.5 58.0456V58.0483ZM209.653 58.3869C209.333 58.8896 209.013 59.4043 208.715 59.9336C208.416 60.4536 208.134 60.9754 207.868 61.4989C207.515 60.6243 207.215 59.7523 206.967 58.9029C207.82 58.7029 208.72 58.5243 209.653 58.3869ZM219.333 58.3869C220.261 58.5229 221.153 58.6949 222.008 58.9029C221.768 59.7456 221.468 60.6123 221.128 61.4803C220.584 60.419 219.985 59.3865 219.335 58.3869H219.333ZM223.417 59.2869C224.064 59.4878 224.675 59.7091 225.251 59.9509C227.56 60.9376 229.053 62.2283 229.053 63.2523C229.047 64.2763 227.553 65.5723 225.244 66.5523C224.684 66.7923 224.071 67.0083 223.437 67.2096C223.037 65.8542 222.547 64.5269 221.971 63.2363C222.571 61.8803 223.051 60.5563 223.417 59.2843V59.2869ZM205.557 59.2923C205.928 60.5723 206.417 61.9016 207.024 63.2656C206.451 64.5482 205.968 65.8687 205.576 67.2176C204.931 67.0176 204.317 66.7936 203.749 66.5509C201.44 65.5683 199.947 64.2763 199.947 63.2523C199.947 62.2283 201.44 60.9296 203.749 59.9509C204.309 59.7109 204.923 59.4949 205.557 59.2923ZM221.128 64.9989C221.481 65.8749 221.781 66.7483 222.029 67.5963C221.176 67.8056 220.275 67.9829 219.341 68.1163C219.991 67.1088 220.586 66.0682 221.128 64.9989ZM207.868 65.0256C208.135 65.5483 208.415 66.0696 208.721 66.5923C209.028 67.1131 209.341 67.6211 209.661 68.1163C208.762 67.9862 207.87 67.8145 206.987 67.6016C207.227 66.7616 207.528 65.8923 207.867 65.0243L207.868 65.0256ZM222.393 69.0083C222.543 69.6656 222.66 70.2989 222.732 70.9056C223.039 73.3963 222.66 75.3323 221.78 75.8496C221.584 75.9696 221.329 76.0203 221.029 76.0203C219.68 76.0203 217.677 74.9443 215.549 72.9803C216.464 72.0203 217.376 70.9323 218.243 69.7269C219.719 69.5696 221.115 69.3283 222.393 69.0083ZM206.62 69.0216C207.9 69.3336 209.295 69.5749 210.763 69.7309C211.643 70.9376 212.556 72.0336 213.476 72.9923C211.349 74.9696 209.353 76.0523 207.996 76.0523C207.74 76.0535 207.487 75.9931 207.259 75.8763C206.371 75.3696 205.985 73.4309 206.285 70.9389C206.357 70.3256 206.476 69.6803 206.62 69.0216ZM212.7 69.8749C213.288 69.9034 213.885 69.9185 214.493 69.9203C215.108 69.9211 215.712 69.906 216.307 69.8749C215.72 70.6376 215.113 71.3349 214.513 71.9616C213.905 71.334 213.301 70.6385 212.7 69.8749Z" fill="black"/>
                <rect x="283.833" y="30.5" width="114.667" height="114" rx="9.5" fill="white"/>
                <rect x="283.833" y="30.5" width="114.667" height="114" rx="9.5" stroke="#EEEBE2"/>
                <path d="M338.972 77.1672C337.8 77.4719 336.562 77.4094 335.425 76.9881C334.289 76.5668 333.31 75.8069 332.619 74.8112C332.194 74.2181 331.893 73.5461 331.732 72.8346C331.571 72.1231 331.554 71.3867 331.682 70.6685C331.726 70.4328 331.785 70.2002 331.86 69.9725L332 69.5445L332.383 69.8245C333.265 70.4724 334.25 70.9648 335.298 71.2805L335.575 71.3645L335.548 71.6419C335.515 72.0348 335.622 72.4269 335.85 72.7485C336.058 73.0482 336.353 73.2769 336.695 73.404C337.037 73.531 337.41 73.5503 337.763 73.4592C337.925 73.4169 338.079 73.3494 338.22 73.2592L345.674 68.5099C345.856 68.3951 346.012 68.2436 346.133 68.065C346.253 67.8863 346.335 67.6845 346.372 67.4725C346.411 67.256 346.406 67.034 346.358 66.8195C346.309 66.605 346.219 66.4023 346.091 66.2232C345.883 65.9235 345.588 65.6948 345.246 65.5678C344.904 65.4407 344.531 65.4214 344.178 65.5125C344.016 65.5549 343.861 65.6223 343.72 65.7125L340.876 67.5259C340.41 67.8249 339.899 68.0494 339.363 68.1912C338.19 68.4961 336.952 68.4338 335.816 68.0127C334.68 67.5916 333.701 66.832 333.01 65.8365C332.585 65.2432 332.284 64.5709 332.123 63.8592C331.962 63.1475 331.945 62.4108 332.074 61.6925C332.201 60.9888 332.473 60.3193 332.872 59.7265C333.272 59.1338 333.791 58.6309 334.396 58.2499L341.848 53.4992C342.315 53.2001 342.826 52.9756 343.362 52.8339C344.535 52.5291 345.773 52.5916 346.909 53.013C348.045 53.4343 349.025 54.1941 349.715 55.1899C350.14 55.7829 350.442 56.455 350.603 57.1664C350.764 57.8779 350.781 58.6144 350.652 59.3325C350.609 59.5683 350.549 59.8008 350.474 60.0285L350.334 60.4565L349.952 60.1765C349.071 59.5281 348.084 59.0352 347.036 58.7192L346.759 58.6352L346.786 58.3592C346.82 57.9658 346.713 57.5732 346.484 57.2512C346.276 56.9518 345.981 56.7233 345.639 56.5965C345.297 56.4697 344.924 56.4506 344.571 56.5419C344.409 56.5842 344.255 56.6517 344.114 56.7419L336.66 61.4912C336.478 61.6059 336.322 61.7575 336.202 61.9361C336.081 62.1147 336 62.3165 335.962 62.5285C335.923 62.745 335.928 62.967 335.977 63.1815C336.025 63.3961 336.115 63.5988 336.243 63.7779C336.451 64.0775 336.746 64.3063 337.088 64.4333C337.43 64.5603 337.803 64.5796 338.156 64.4885C338.319 64.4459 338.474 64.378 338.615 64.2872L341.458 62.4739C341.925 62.1752 342.435 61.9512 342.971 61.8099C344.144 61.505 345.382 61.5673 346.518 61.9884C347.654 62.4095 348.634 63.169 349.324 64.1645C349.749 64.7578 350.051 65.4302 350.211 66.1419C350.372 66.8536 350.389 67.5903 350.26 68.3085C350.134 69.0125 349.862 69.6823 349.462 70.2753C349.062 70.8683 348.543 71.3714 347.938 71.7525L340.486 76.5019C340.019 76.8009 339.508 77.0254 338.972 77.1672ZM352.783 53.2339C349.812 48.9805 343.943 47.7205 339.7 50.4245L332.247 55.1739C331.24 55.8066 330.376 56.6429 329.711 57.6291C329.046 58.6153 328.595 59.7296 328.386 60.9005C328.03 62.8728 328.342 64.9074 329.274 66.6819C328.635 67.6488 328.199 68.7358 327.994 69.8765C327.781 71.0707 327.81 72.2953 328.077 73.4783C328.345 74.6614 328.846 75.7791 329.551 76.7659C332.523 81.0192 338.391 82.2792 342.634 79.5765L350.087 74.8272C351.094 74.1945 351.958 73.3582 352.623 72.372C353.288 71.3858 353.739 70.2715 353.948 69.1005C354.304 67.1284 353.992 65.0942 353.062 63.3192C353.7 62.3521 354.135 61.2651 354.339 60.1245C354.552 58.9302 354.524 57.7055 354.256 56.5222C353.989 55.3389 353.488 54.2209 352.783 53.2339Z" fill="black"/>
                <rect x="30.5" y="155.5" width="368" height="39" rx="9.5" fill="#FAEEEE"/>
                <rect x="30.5" y="155.5" width="368" height="39" rx="9.5" stroke="#EEEBE2"/>
                <rect x="30.5" y="205.5" width="368" height="39" rx="9.5" fill="#FAEEEE"/>
                <rect x="30.5" y="205.5" width="368" height="39" rx="9.5" stroke="#EEEBE2"/>
            </g>
        </g>
        <rect x="0.5" y="0.5" width="428" height="270" rx="24" stroke="#EEEBE2"/>
    </g>
    <defs>
        <filter id="filter0_i_120_383" x="0" y="0" width="429" height="273" filterUnits="userSpaceOnUse" color-interpolation-filters="sRGB">
            <feFlood flood-opacity="0" result="BackgroundImageFix"/>
            <feBlend mode="normal" in="SourceGraphic" in2="BackgroundImageFix" result="shape"/>
            <feColorMatrix in="SourceAlpha" type="matrix" values="0 0 0 0 0 0 0 0 0 0 0 0 0 0 0 0 0 0 127 0" result="hardAlpha"/>
            <feOffset dy="2"/>
            <feGaussianBlur stdDeviation="4"/>
            <feComposite in2="hardAlpha" operator="arithmetic" k2="-1" k3="1"/>
            <feColorMatrix type="matrix" values="0 0 0 0 0 0 0 0 0 0 0 0 0 0 0 0 0 0 0.1 0"/>
            <feBlend mode="normal" in2="shape" result="effect1_innerShadow_120_383"/>
        </filter>
        <filter id="filter1_ddddd_120_383" x="-70" y="-66" width="569" height="415" filterUnits="userSpaceOnUse" color-interpolation-filters="sRGB">
            <feFlood flood-opacity="0" result="BackgroundImageFix"/>
            <feColorMatrix in="SourceAlpha" type="matrix" values="0 0 0 0 0 0 0 0 0 0 0 0 0 0 0 0 0 0 127 0" result="hardAlpha"/>
            <feOffset dx="2" dy="4"/>
            <feGaussianBlur stdDeviation="2"/>
            <feComposite in2="hardAlpha" operator="out"/>
            <feColorMatrix type="matrix" values="0 0 0 0 0.905892 0 0 0 0 0.905892 0 0 0 0 0.905892 0 0 0 1 0"/>
            <feBlend mode="normal" in2="BackgroundImageFix" result="effect1_dropShadow_120_383"/>
            <feColorMatrix in="SourceAlpha" type="matrix" values="0 0 0 0 0 0 0 0 0 0 0 0 0 0 0 0 0 0 127 0" result="hardAlpha"/>
            <feOffset dx="4" dy="8"/>
            <feGaussianBlur stdDeviation="4"/>
            <feComposite in2="hardAlpha" operator="out"/>
            <feColorMatrix type="matrix" values="0 0 0 0 0.896989 0 0 0 0 0.896989 0 0 0 0 0.896989 0 0 0 1 0"/>
            <feBlend mode="normal" in2="effect1_dropShadow_120_383" result="effect2_dropShadow_120_383"/>
            <feColorMatrix in="SourceAlpha" type="matrix" values="0 0 0 0 0 0 0 0 0 0 0 0 0 0 0 0 0 0 127 0" result="hardAlpha"/>
            <feOffset dx="4" dy="16"/>
            <feGaussianBlur stdDeviation="6"/>
            <feComposite in2="hardAlpha" operator="out"/>
            <feColorMatrix type="matrix" values="0 0 0 0 0.899121 0 0 0 0 0.899121 0 0 0 0 0.899121 0 0 0 1 0"/>
            <feBlend mode="normal" in2="effect2_dropShadow_120_383" result="effect3_dropShadow_120_383"/>
            <feColorMatrix in="SourceAlpha" type="matrix" values="0 0 0 0 0 0 0 0 0 0 0 0 0 0 0 0 0 0 127 0" result="hardAlpha"/>
            <feOffset dy="4"/>
            <feGaussianBlur stdDeviation="50"/>
            <feComposite in2="hardAlpha" operator="out"/>
            <feColorMatrix type="matrix" values="0 0 0 0 1 0 0 0 0 0.352941 0 0 0 0 0.333333 0 0 0 0.3 0"/>
            <feBlend mode="normal" in2="effect3_dropShadow_120_383" result="effect4_dropShadow_120_383"/>
            <feColorMatrix in="SourceAlpha" type="matrix" values="0 0 0 0 0 0 0 0 0 0 0 0 0 0 0 0 0 0 127 0" result="hardAlpha"/>
            <feOffset dx="-5" dy="-5"/>
            <feGaussianBlur stdDeviation="5"/>
            <feComposite in2="hardAlpha" operator="out"/>
            <feColorMatrix type="matrix" values="0 0 0 0 1 0 0 0 0 1 0 0 0 0 1 0 0 0 0.4 0"/>
            <feBlend mode="normal" in2="effect4_dropShadow_120_383" result="effect5_dropShadow_120_383"/>
            <feBlend mode="normal" in="SourceGraphic" in2="effect5_dropShadow_120_383" result="shape"/>
        </filter>
        <clipPath id="clip0_120_383">
            <rect width="429" height="271" rx="24.5" fill="white"/>
        </clipPath>
    </defs>
</svg>
